X:081
U: ~ = !turn!
%%topmargin 3cm
T:George White's Favorite
B:Traditional Irish Fiddle Tunes. Randy Miller and Jack Perron.
Z:Transcribed by Ralph Palmer
R:Reel
M:C|
L:1/8
K:G
Bd | eB (3.B.B.B eBdB | AGAB GEDE | GB (3.B.B.B dB (3.B.B.B | eBdB A2 Bd |
eB (3.B.B.B eBdB | AGAB GEDE GABd gedB | AGAB G2 ::
e2 | gd (3{/e}(dcd) gbaf | gfga gedB | dega b2 ag | eaab a2 ga |
baga egdB | gede gbaf | gfgd egdB | AGAB G2 :|]
